X:1049
M:6/8
L:1/8
Q:3/8=104
P:ABACA
K:D
P:A
z   |A>BA d2f|e2e  e2f   |def B2e|(d3 c2)
P:B
z   |ABc  A2A|B2B  A2A   |Bcd A2A| B3 A2 :|
P:C
f/g/|a2a  f2d|e>de d2f/g/|a2a f2d|(f3 e2):|


